MadForGolf/src/main/webapp/resources/images/logo.svg

<svg width="120" height="48" viewBox="0 0 120 48" fill="none" xmlns="http://www.w3.org/2000/svg">
<path fill-rule="evenodd" clip-rule="evenodd" d="M37.6013 36.6793C37.6011 38.0958 37.3149 39.4984 36.7589 40.8071C36.203 42.1157 35.3882 43.3047 34.3611 44.3062C33.3339 45.3077 32.1146 46.1021 30.7727 46.644C29.4309 47.1859 27.9927 47.4648 26.5403 47.4646H7.22251e-08V36.6793C-0.000165905 35.2628 0.285738 33.8602 0.841387 32.5514C1.39704 31.2427 2.21155 30.0535 3.23842 29.0518C4.26529 28.05 5.48441 27.2554 6.82618 26.7131C8.16794 26.1709 9.60607 25.8918 11.0585 25.8916H26.5428C29.4757 25.8926 32.2881 27.0296 34.3617 29.0526C36.4352 31.0755 37.6 33.8189 37.6 36.6793" fill="#0836F0"/>
<path fill-rule="evenodd" clip-rule="evenodd" d="M10.5053 34.5176C10.7957 34.5177 11.0833 34.5735 11.3516 34.682C11.6199 34.7905 11.8637 34.9494 12.069 35.1498C12.2743 35.3502 12.4372 35.588 12.5482 35.8497C12.6593 36.1115 12.7164 36.392 12.7163 36.6752C12.7163 36.9585 12.659 37.239 12.5478 37.5007C12.4365 37.7623 12.2735 38.0001 12.0681 38.2003C11.8627 38.4006 11.6188 38.5594 11.3505 38.6677C11.0821 38.7761 10.7945 38.8318 10.504 38.8317C9.91745 38.8315 9.35496 38.6041 8.94031 38.1995C8.52566 37.7948 8.2928 37.2461 8.29297 36.674C8.29314 36.1019 8.52631 35.5533 8.9412 35.1489C9.3561 34.7445 9.91871 34.5174 10.5053 34.5176V34.5176ZM18.7998 34.5176C19.3863 34.5176 19.9489 34.7448 20.3637 35.1494C20.7784 35.5539 21.0115 36.1025 21.0115 36.6746C21.0115 37.2467 20.7784 37.7954 20.3637 38.1999C19.9489 38.6044 19.3863 38.8317 18.7998 38.8317C18.2132 38.8317 17.6506 38.6044 17.2359 38.1999C16.8211 37.7954 16.5881 37.2467 16.5881 36.6746C16.5881 36.1025 16.8211 35.5539 17.2359 35.1494C17.6506 34.7448 18.2132 34.5176 18.7998 34.5176V34.5176ZM27.0942 34.5176C27.6808 34.5176 28.2434 34.7448 28.6581 35.1494C29.0729 35.5539 29.3059 36.1025 29.3059 36.6746C29.3059 37.2467 29.0729 37.7954 28.6581 38.1999C28.2434 38.6044 27.6808 38.8317 27.0942 38.8317C26.5077 38.8317 25.9451 38.6044 25.5303 38.1999C25.1156 37.7954 24.8825 37.2467 24.8825 36.6746C24.8825 36.1025 25.1156 35.5539 25.5303 35.1494C25.9451 34.7448 26.5077 34.5176 27.0942 34.5176" fill="white"/>
<path fill-rule="evenodd" clip-rule="evenodd" d="M7.74218 4.31411H0V0H19.9052V4.31411H12.1668V21.5705H7.74344L7.74218 4.31411ZM42.0259 0H46.4493V17.2564H59.7194V21.5705H42.0259V0ZM63.0319 25.8883H67.4553V43.1448H80.7254V47.4589H63.0319V25.8883ZM81.8389 0H76.3096L67.4629 8.62821V0H63.0395V21.5705H67.4629V12.9423L76.3096 21.5705H81.8389L70.7792 10.784L81.8389 0ZM112.177 48C108.85 48.0026 105.642 46.7913 103.185 44.6042L105.758 41.4475C107.523 43.0772 109.842 44.0135 112.272 44.0766C114.362 44.0766 115.659 43.1818 115.659 41.7347C115.659 40.2087 114.676 39.5493 111.079 38.6039C106.269 37.3466 103.981 36.0314 103.981 31.954C103.981 27.9727 106.973 25.3423 111.427 25.3423C114.285 25.3015 117.064 26.2506 119.271 28.0207L117.005 31.3845C115.397 30.1211 113.425 29.3798 111.364 29.2644C109.517 29.2644 108.318 30.1186 108.318 31.4412C108.318 33.1508 109.362 33.6599 113.216 34.6682C117.405 35.7861 120 37.2665 120 41.1911C119.997 45.4177 117.002 48 112.177 48V48ZM25.9893 11.865L28.7545 4.85522L31.5198 11.865H25.9893V11.865ZM17.6935 21.573H22.1169L24.3286 16.1804H33.1754L35.387 21.573H39.8104L30.9637 0.0024652H26.5403L17.6935 21.573ZM51.9785 36.6748H46.4493V30.2025H51.9785C52.8425 30.2257 53.6632 30.5768 54.2658 31.1811C54.8685 31.7853 55.2057 32.595 55.2057 33.438C55.2057 34.281 54.8685 35.0908 54.2658 35.695C53.6632 36.2993 52.8425 36.6503 51.9785 36.6736V36.6748ZM51.9785 25.8883H42.0259V47.4589H46.4493V40.9939H51.9785C52.9953 40.9939 54.0022 40.7985 54.9416 40.419C55.881 40.0394 56.7346 39.4831 57.4535 38.7818C58.1725 38.0805 58.7427 37.248 59.1317 36.3317C59.5207 35.4155 59.7209 34.4334 59.7207 33.4417C59.7207 31.4391 58.905 29.5185 57.4531 28.1024C56.0011 26.6863 54.0319 25.8908 51.9785 25.8908V25.8883V25.8883ZM96.2149 25.8883V38.8307C96.2149 40.1179 95.6906 41.3523 94.7573 42.2625C93.8241 43.1727 92.5583 43.684 91.2385 43.684C89.9188 43.684 88.653 43.1727 87.7198 42.2625C86.7865 41.3523 86.2622 40.1179 86.2622 38.8307V25.8883H81.8389V38.8307C81.8389 40.0346 82.082 41.2268 82.5544 42.3391C83.0268 43.4515 83.7193 44.4621 84.5922 45.3135C85.4651 46.1648 86.5013 46.8401 87.6418 47.3009C88.7823 47.7616 90.0047 47.9988 91.2392 47.9988C92.4737 47.9988 93.696 47.7616 94.8365 47.3009C95.977 46.8401 97.0133 46.1648 97.8862 45.3135C98.7591 44.4621 99.4515 43.4515 99.9239 42.3391C100.396 41.2268 100.639 40.0346 100.639 38.8307V25.8883H96.2161H96.2149Z" fill="black"/>
<path fill-rule="evenodd" clip-rule="evenodd" d="M81.8398 10.7853C81.8397 12.2018 82.1256 13.6044 82.6812 14.9132C83.2369 16.2219 84.0514 17.4111 85.0783 18.4128C86.1051 19.4146 87.3243 20.2092 88.666 20.7515C90.0078 21.2937 91.4459 21.5728 92.8983 21.573H119.439V10.7853C119.438 7.92515 118.273 5.18225 116.2 3.15973C114.126 1.1372 111.314 0.000653648 108.381 0L92.8996 0C89.9668 0.000326839 87.1542 1.13673 85.0804 3.15929C83.0066 5.18185 81.8414 7.92494 81.8411 10.7853" fill="#00F898"/>
<path fill-rule="evenodd" clip-rule="evenodd" d="M93.5625 12.0804H99.3129V17.6899H101.967V12.0816H107.717V9.49066H101.967V3.88232H99.3129V9.49066H93.5625V12.0804Z" fill="white"/>
</svg>

<svg width="120" height="48" fill="none" xmlns="http://www.w3.org/2000/svg"><path fill-rule="evenodd" clip-rule="evenodd" d="M37.601 36.68c0 1.416-.286 2.818-.842 4.127a10.772 10.772 0 0 1-2.398 3.5 11.084 11.084 0 0 1-3.588 2.337c-1.342.542-2.78.82-4.233.82H0V36.68c0-1.416.286-2.819.841-4.128a10.773 10.773 0 0 1 2.397-3.5 11.083 11.083 0 0 1 3.588-2.338 11.304 11.304 0 0 1 4.233-.821h15.484a11.205 11.205 0 0 1 7.819 3.16A10.654 10.654 0 0 1 37.6 36.68" fill="#0836F0"/><path fill-rule="evenodd" clip-rule="evenodd" d="M10.505 34.518c.29 0 .578.056.847.164.268.108.512.267.717.468.205.2.368.438.48.7a2.11 2.11 0 0 1-.48 2.35 2.259 2.259 0 0 1-3.128 0 2.13 2.13 0 0 1-.648-1.526c0-.572.233-1.12.648-1.525a2.24 2.24 0 0 1 1.564-.631Zm8.295 0c.586 0 1.149.227 1.564.631.414.405.648.953.648 1.526a2.13 2.13 0 0 1-.648 1.525 2.24 2.24 0 0 1-1.564.632 2.24 2.24 0 0 1-1.564-.632 2.13 2.13 0 0 1-.648-1.525c0-.572.233-1.121.648-1.526a2.24 2.24 0 0 1 1.564-.631Zm8.294 0c.587 0 1.15.227 1.564.631.415.405.648.953.648 1.526a2.13 2.13 0 0 1-.648 1.525 2.24 2.24 0 0 1-1.564.632 2.24 2.24 0 0 1-1.564-.632 2.13 2.13 0 0 1-.648-1.525c0-.572.234-1.121.648-1.526a2.24 2.24 0 0 1 1.564-.631" fill="#fff"/><path fill-rule="evenodd" clip-rule="evenodd" d="M7.742 4.314H0V0h19.905v4.314h-7.738V21.57H7.743V4.314ZM42.026 0h4.423v17.256h13.27v4.314H42.026V0Zm21.006 25.888h4.423v17.257h13.27v4.314H63.032v-21.57ZM81.839 0h-5.53l-8.846 8.628V0H63.04v21.57h4.423v-8.628l8.847 8.628h5.529l-11.06-10.786L81.84 0Zm30.338 48a13.514 13.514 0 0 1-8.992-3.396l2.573-3.157a9.985 9.985 0 0 0 6.514 2.63c2.09 0 3.387-.895 3.387-2.342 0-1.526-.983-2.186-4.58-3.131-4.81-1.257-7.098-2.573-7.098-6.65 0-3.981 2.992-6.612 7.446-6.612 2.858-.04 5.637.909 7.844 2.679l-2.266 3.363a10.041 10.041 0 0 0-5.641-2.12c-1.847 0-3.046.855-3.046 2.177 0 1.71 1.044 2.219 4.898 3.227 4.189 1.118 6.784 2.599 6.784 6.523-.003 4.227-2.998 6.809-7.823 6.809ZM25.989 11.865l2.765-7.01 2.766 7.01h-5.53Zm-8.296 9.708h4.424l2.212-5.393h8.846l2.212 5.393h4.423L30.964.003H26.54l-8.846 21.57Zm34.285 15.102H46.45v-6.472h5.53a3.358 3.358 0 0 1 2.287.978c.602.604.94 1.414.94 2.257 0 .843-.338 1.653-.94 2.257a3.358 3.358 0 0 1-2.288.979Zm0-10.787h-9.952v21.57h4.423v-6.464h5.53a7.914 7.914 0 0 0 2.963-.575 7.759 7.759 0 0 0 2.511-1.637 7.54 7.54 0 0 0 1.679-2.45c.389-.916.589-1.899.589-2.89a7.458 7.458 0 0 0-2.268-5.34 7.843 7.843 0 0 0-5.475-2.211v-.003Zm44.237 0v12.943a4.793 4.793 0 0 1-1.458 3.431 5.04 5.04 0 0 1-3.519 1.422 5.04 5.04 0 0 1-3.518-1.421 4.793 4.793 0 0 1-1.458-3.432V25.888H81.84v12.943c0 1.204.243 2.396.715 3.508a9.157 9.157 0 0 0 2.038 2.974 9.42 9.42 0 0 0 3.05 1.988 9.608 9.608 0 0 0 7.195 0 9.421 9.421 0 0 0 3.05-1.988 9.156 9.156 0 0 0 2.037-2.974 8.977 8.977 0 0 0 .715-3.508V25.888h-4.424Z" fill="#000"/><path fill-rule="evenodd" clip-rule="evenodd" d="M81.84 10.785c0 1.417.286 2.82.841 4.128a10.773 10.773 0 0 0 2.397 3.5 11.082 11.082 0 0 0 3.588 2.338c1.342.543 2.78.822 4.232.822h26.541V10.785A10.658 10.658 0 0 0 116.2 3.16 11.205 11.205 0 0 0 108.381 0H92.9a11.204 11.204 0 0 0-7.82 3.16 10.653 10.653 0 0 0-3.239 7.625" fill="#00F898"/><path fill-rule="evenodd" clip-rule="evenodd" d="M93.563 12.08h5.75v5.61h2.654v-5.608h5.75V9.49h-5.75V3.882h-2.654v5.609h-5.75v2.59Z" fill="#fff"/></svg>
